X:1
T: Cheese it!
C:
R:Reel
Q: 232
K:D
M:4/4
L:1/8
A2|Ad dc df ed|AB =cA FG AF|Dd dc de fg|af ge fd cB|
Ad dc df ed|AB =cA FG AF|Dd dc de fg|af ge fd d2|
|:de fg af df|cd ef ge dc|de fg ad fd|ge ce fd d2|
de fg ad fd|cd ef ge dc|de fg a2 gf|gb ag fe dc:|
Ad dc df ed|AB =cA FG AF|Dd dc de fg|af ge fd cB|
Ad dc df ed|AB =cA FG AF|Dd dc de fg|af ge fd d2||
